X: 1
T:Fermanagh Highland
M:4/4
L:1/8
Q:100
R:highland
D:Altan, "Island Angel"
K:D
dB|:A2FD A<ddB|A2FD EFGB|{B}A2FA {B}A2FA|BGEG F<DDB:|!
dAFA f3e|dAFA Beec|dAFA f3A|G<FEF GAB<c|!
dAFA f3e|dAFA Beec|d2c<d B<cA2|(3Bcd (3edc d4:|!
